!!!OTL: Edelmann und Sch&auml;ferin (7b), S. 43f
!!!id: T0110
**kern
*clefG2
*k[]
*G:
{8d
=1
8g
8g
8g
8g
8a
8b
=2
4b
8a
4a}
=3
{16b
16b
=4
4b
16a
16a
4a
16b
16b
=5
8b
8a
8a
4a}
=6
{8d
=7
8g
8g
8g
8g
8a
8b
=8
4b
8a
4a}
=9
{16b
16b
=10
4b
16a
16a
4a
16b
16b
=11
8b
8a
8a
4a}
=12
{16d
16d
=13
8g
8g
8g
8g
8a
8b
=14
4b
8a
4a}
==
*-
!!!minrhy: 16
!!!meters: 6/8 ]  ZZ[5
!!!cut: Edelmann und Sch&auml;ferin (7b), S. 43f
!!!reg: Luxemburg
!!!trd: Singendes Volk, Esch-Alzette 1937 posth.
!!!rhy1: X_  X_X_X_X_X_X_  X__X_X__
!!!rhy2: XX  X__XXX__XX  X_X_X_X__
!!!key: T0110  16  G 6/8 ]  ZZ[5
!!!mod: VIERTONSKALA ]  AMBITUS[6
!!!kad: 22222
!!!akz: 1132_3232_1132_3232_1132_
!!!fot: 'a__b__a__b__av_
!!!for: 'a__b__a__b__av_
!!!fok: '/__\__/__\__/__
!! PHRAS[AUFTAKTIG]
!!!fkt: "erz&auml;hlendes Lied"
!!!bem1: STRASSEN; gesungen von Frau Dumont,
!!!bem2: geb. Karoline Witry am 13.12.1932
!! THILL, Mathias:
!! PR[43] 2K[2] 2G[8] 3K[2] 3G[2] 4A[6] 4Ü[0] 5A[2] 6K[0] 6G[2]
!! 7K[0] 7G[0] 8A[0] MEHR[0] SI[24] ABS[51] SR[10] SP[14]
!! ST[20] 2k[2] 2g[18] 3k[10] 3g[4] 4d[0] 4ü[0] 5d[0] 6k[0] 6g[0]
!! 7k[0] 7g[0] 8d[0] mehr[0] si[33] dm[-9] sr[20] sp[14]
!! 1F[46] 2F[54] 3F[0] 4F[0] LF[0] 2P[0] 3P[0] 4P[0] TRI[0] DF[2] AB[52]
!! TF[0] U3K[0] U3[0] U4[0] U4Ü[0] U5[0] U6K[0] U6[0] U7K[0] U7[0]
!! N1[0] N2K[0] N2[2] N3K[0] N3[10] N4[8] N4Ü[0] N5[25] N6K[0] N6[21]
!!!n7k: 0] N7[6] O1[19] O2K[0] O2[8] O3K[0] O3[2] HÖ[0
!!!RNB: symbol: &auml;      = a umlaut  (UTF-8: Å„)
